X:3
T:Munster Buttermilk
D:Houseband
R:double jig
Z:Lesl Harker <lmh:RCONS.COM> irtrad-l 2001-12-2
M:6/8
L:1/8
K:D
A |: d2f edB | BAF FEF | AFE DFA | BAF DFA |
     d2f edB | BAF FEF | AFE DEF |1 E~E2 DFA :|2 E~E2 D2B ||
 |: A~A2 d2e | f2{e}f fed | e2{a}e edB | def edB |
    A~A2 d2e | f2{e}f fed | edB Adf |1 e~e2 d2A :|2 e~e2 ABc |]
